images/ico-04.svg

<svg width="17" height="23" viewBox="0 0 17 23" fill="none" xmlns="http://www.w3.org/2000/svg">
<path d="M6.45065 19.7691C6.25597 19.7691 6.09729 19.6111 6.09729 19.4165C6.09729 19.2218 6.25523 19.0638 6.45065 19.0638H10.5498C10.7445 19.0638 10.9024 19.2218 10.9024 19.4165C10.9024 19.6111 10.7445 19.7691 10.5498 19.7691H6.45065Z" fill="black"/>
<path d="M6.9062 21.1686C6.71153 21.1686 6.55359 21.0107 6.55359 20.816C6.55359 20.6213 6.71227 20.4634 6.9062 20.4634H10.0944C10.2891 20.4634 10.447 20.6213 10.447 20.816C10.447 21.0107 10.2891 21.1686 10.0944 21.1686H6.9062Z" fill="black"/>
<path d="M8.16813 16.2937C8.16813 16.4876 8.01093 16.6448 7.817 16.6448C7.62307 16.6448 7.46587 16.4876 7.46587 16.2937C7.46439 14.809 7.42179 13.6998 7.21684 12.6728C7.0141 11.6576 6.65118 10.7165 6.00696 9.55581C5.91293 9.38613 5.97391 9.17234 6.14288 9.07831C6.31259 8.98428 6.52635 9.04526 6.62112 9.21423C7.30502 10.4469 7.69217 11.4504 7.90812 12.5354C8.12186 13.6065 8.16668 14.7569 8.16813 16.2937Z" fill="black"/>
<path d="M9.53477 16.2937C9.53477 16.4877 9.37755 16.6448 9.18365 16.6448C8.98975 16.6448 8.83252 16.4876 8.83252 16.2937C8.83403 14.7568 8.87879 13.6072 9.09255 12.5355C9.30853 11.4504 9.69568 10.447 10.3796 9.21426C10.4736 9.04458 10.6881 8.98361 10.8571 9.07835C11.0268 9.17238 11.087 9.38688 10.993 9.55585C10.3488 10.7165 9.98588 11.6583 9.78312 12.6728C9.57885 13.6998 9.53554 14.8091 9.53477 16.2937Z" fill="black"/>
<path d="M6.20706 9.71957C6.02193 9.66079 5.92055 9.46247 5.97933 9.27731C6.03883 9.09218 6.23644 8.9908 6.42159 9.04959C6.66696 9.12894 6.87927 9.23545 7.07539 9.3339L7.09448 9.34419C7.40079 9.49846 7.65573 9.61893 7.84525 9.46466L8.27867 9.1113C8.42926 8.98938 8.65118 9.01214 8.77307 9.16274C8.89503 9.31333 8.87223 9.53519 8.72164 9.65714L8.28822 10.0105C7.74828 10.4498 7.30676 10.236 6.77492 9.96936L6.75876 9.96201C6.58686 9.8753 6.40025 9.78201 6.20706 9.71957Z" fill="black"/>
<path d="M8.85309 1.71899C8.85309 1.91366 8.69514 2.07161 8.50044 2.07161C8.30577 2.07161 8.14783 1.91366 8.14783 1.71899V0.352614C8.14783 0.157943 8.30577 0 8.50044 0C8.69517 0 8.85309 0.157943 8.85309 0.352614V1.71899Z" fill="black"/>
<path d="M10.5793 9.04967C10.7644 8.99017 10.9628 9.0923 11.0216 9.27739C11.0811 9.46252 10.979 9.66087 10.7939 9.71965C10.6007 9.78209 10.4141 9.87612 10.2414 9.96282L10.2253 9.97018C9.69414 10.2368 9.25195 10.4514 8.71202 10.0113L8.2786 9.65796C8.12801 9.53601 8.10524 9.31415 8.22717 9.16356C8.34912 9.01297 8.57097 8.9902 8.72159 9.11213L9.15501 9.46548C9.34455 9.61975 9.59871 9.49854 9.90579 9.34501L9.92494 9.33472C10.1217 9.23554 10.3339 9.12902 10.5793 9.04967Z" fill="black"/>
<path d="M12.9367 5.48099C14.0717 6.61596 14.7747 8.1851 14.7747 9.91732C14.7747 10.5946 14.666 11.2492 14.4662 11.8626C14.2598 12.4966 13.9535 13.0879 13.5678 13.6154C12.9206 14.5006 12.3954 15.0817 11.9877 15.5334C11.2538 16.3452 10.932 16.7008 10.932 17.8879C10.932 18.0826 10.7741 18.2405 10.5794 18.2405H10.5705H8.51582H6.45157C6.2569 18.2405 6.09821 18.0826 6.09821 17.8879C6.09821 16.7125 5.76985 16.3533 5.04111 15.5548L5.04037 15.554L5.03963 15.5548C4.62752 15.1037 4.09713 14.5226 3.43376 13.6154C3.04809 13.0879 2.74175 12.4958 2.53534 11.8619C2.33551 11.2492 2.22681 10.5939 2.22681 9.91735C2.22681 9.06962 2.39652 8.25859 2.70357 7.51809L2.71018 7.50412C3.029 6.74011 3.49328 6.05252 4.06553 5.48102C4.64148 4.90509 5.33275 4.43933 6.10263 4.12051V4.11977C6.8431 3.81272 7.65413 3.64301 8.50189 3.64301C9.34822 3.64301 10.1584 3.81272 10.8997 4.11977C11.6681 4.43859 12.3608 4.90507 12.9367 5.48099ZM14.0688 9.91732C14.0688 8.37978 13.445 6.9877 12.4379 5.97978C11.923 5.4648 11.3096 5.0505 10.6308 4.76986C9.977 4.4988 9.25707 4.34895 8.50038 4.34895C7.74446 4.34895 7.02455 4.4988 6.37147 4.76986V4.76915L6.36999 4.76986C5.6912 5.0505 5.07855 5.4648 4.56358 5.97978C4.05376 6.48959 3.64165 7.09786 3.36027 7.76929L3.35292 7.78838C3.0826 8.44144 2.93201 9.16137 2.93201 9.91729C2.93201 10.5211 3.02823 11.103 3.20455 11.6443C3.38894 12.2078 3.66 12.7323 4.00088 13.1995C4.6378 14.0708 5.15643 14.6386 5.55973 15.0808L5.55899 15.0816C6.34355 15.9389 6.73363 16.3679 6.79461 17.5359H8.51434H10.2341C10.2943 16.3598 10.677 15.9352 11.4653 15.0639C11.859 14.6283 12.3652 14.0678 12.9992 13.2009C13.34 12.7345 13.6111 12.21 13.7947 11.6465C13.9726 11.103 14.0688 10.5219 14.0688 9.91732Z" fill="black"/>
<path d="M7.36165 22.5673C7.16698 22.5673 7.00903 22.4093 7.00903 22.2147C7.00903 22.02 7.16698 21.8621 7.36165 21.8621H9.63898C9.83365 21.8621 9.9916 22.02 9.9916 22.2147C9.9916 22.4093 9.83365 22.5673 9.63898 22.5673H7.36165Z" fill="black"/>
<path d="M12.8265 2.97158C12.7302 3.13907 12.515 3.19711 12.3468 3.10089C12.1793 3.00466 12.1213 2.78942 12.2175 2.62119L12.9007 1.43775C12.9969 1.27026 13.2122 1.21222 13.3804 1.30844C13.5486 1.40466 13.6059 1.61991 13.5097 1.78814L12.8265 2.97158Z" fill="black"/>
<path d="M4.78254 2.62182C4.87876 2.7893 4.82149 3.00455 4.65323 3.1008C4.48574 3.19703 4.2705 3.13899 4.17427 2.9715L3.49106 1.78802C3.39484 1.62053 3.45285 1.40528 3.62037 1.30906C3.7886 1.21283 4.00385 1.27085 4.10007 1.43834L4.78254 2.62182Z" fill="black"/>
<path d="M1.70964 5.43613C1.87713 5.53236 1.93517 5.7476 1.83894 5.91583C1.74272 6.08332 1.52745 6.14136 1.35996 6.04513L0.176477 5.36193C0.00824744 5.26571 -0.0497669 5.05046 0.0464581 4.88297C0.142683 4.71475 0.357929 4.65744 0.526159 4.75367L1.70964 5.43613Z" fill="black"/>
<path d="M15.6408 6.04511C15.4726 6.14133 15.2573 6.08332 15.1611 5.9158C15.0649 5.74757 15.1229 5.53233 15.2904 5.43611L16.4739 4.7529C16.642 4.65668 16.8573 4.71469 16.9535 4.88221C17.0498 5.0497 16.9918 5.26568 16.8242 5.36191L15.6408 6.04511Z" fill="black"/>
<path d="M4.83691 11.3108C4.91185 11.4893 4.82811 11.6957 4.64959 11.7707C4.47108 11.8456 4.26466 11.7619 4.18972 11.5834C4.06996 11.2999 3.97667 11.0009 3.91495 10.6923C3.85398 10.3875 3.82092 10.076 3.82092 9.76305C3.82092 9.56838 3.97961 9.41044 4.17354 9.41044C4.36821 9.41044 4.52615 9.56912 4.52615 9.76305C4.52615 10.0385 4.55334 10.3037 4.60403 10.555C4.6562 10.8164 4.73553 11.0706 4.83691 11.3108ZM4.83691 8.21443C4.762 8.39294 4.55556 8.47668 4.37704 8.40175C4.19853 8.32681 4.11478 8.12037 4.18972 7.94188C4.30797 7.66198 4.4527 7.39679 4.61799 7.15068L4.61873 7.14994L4.61799 7.14923C4.7877 6.898 4.98015 6.66438 5.19098 6.45355C5.39962 6.24491 5.63324 6.05244 5.88738 5.8813V5.88056C6.13129 5.71601 6.39794 5.57129 6.68003 5.45229C6.96286 5.33253 7.26111 5.23924 7.57039 5.17753C7.87525 5.11581 8.1882 5.0835 8.50041 5.0835C8.69514 5.0835 8.85306 5.24144 8.85306 5.43611C8.85306 5.63078 8.69511 5.78872 8.50041 5.78872C8.22419 5.78872 7.95828 5.81591 7.70776 5.86586C7.4455 5.91803 7.19204 5.9981 6.95258 6.09945C6.71972 6.1979 6.4949 6.32057 6.28114 6.46455H6.2804C6.07251 6.60411 5.87416 6.76866 5.69051 6.95234C5.50906 7.13379 5.34451 7.33288 5.20272 7.5437L5.20198 7.54296C5.05877 7.7553 4.93607 7.98009 4.83691 8.21443Z" fill="black"/>
</svg>

<svg width="17" height="23" viewBox="0 0 17 23" fill="none" xmlns="http://www.w3.org/2000/svg"><path d="M6.45 19.77a.353.353 0 0 1 0-.706h4.1a.353.353 0 0 1 0 .705h-4.1zM6.906 21.169a.353.353 0 0 1 0-.706h3.188a.353.353 0 0 1 0 .706H6.906zM8.168 16.294a.351.351 0 0 1-.702 0c-.002-1.485-.044-2.594-.25-3.621-.202-1.015-.565-1.957-1.209-3.117a.352.352 0 0 1 .614-.342c.684 1.233 1.071 2.236 1.287 3.321.214 1.072.259 2.222.26 3.759zM9.535 16.294a.351.351 0 1 1-.702 0c.001-1.537.046-2.687.26-3.758.216-1.086.603-2.089 1.287-3.322a.35.35 0 1 1 .613.342c-.644 1.16-1.007 2.102-1.21 3.117-.204 1.027-.247 2.136-.248 3.62z" fill="#000"/><path d="M6.207 9.72a.352.352 0 0 1 .215-.67c.245.079.457.185.653.284l.02.01c.306.154.56.275.75.12l.434-.353a.352.352 0 0 1 .443.546l-.434.354c-.54.439-.981.225-1.513-.042l-.016-.007a3.937 3.937 0 0 0-.552-.242zM8.853 1.719a.353.353 0 0 1-.705 0V.353a.353.353 0 0 1 .705 0v1.366z" fill="#000"/><path d="M10.58 9.05a.351.351 0 1 1 .214.67c-.193.062-.38.156-.553.243l-.016.007c-.53.267-.973.481-1.513.041l-.433-.353a.352.352 0 0 1 .443-.546l.433.353c.19.155.444.034.75-.12l.02-.01c.197-.1.409-.206.654-.285z" fill="#000"/><path d="M12.937 5.481a6.275 6.275 0 0 1 .631 8.134c-.647.886-1.173 1.467-1.58 1.918-.734.812-1.056 1.168-1.056 2.355a.353.353 0 0 1-.353.352H6.452a.353.353 0 0 1-.354-.352c0-1.176-.328-1.535-1.057-2.333v-.001H5.04a21.222 21.222 0 0 1-1.606-1.939 6.258 6.258 0 0 1-.73-6.097l.006-.014a6.281 6.281 0 0 1 3.393-3.383V4.12a6.252 6.252 0 0 1 2.399-.477c.846 0 1.656.17 2.398.477a6.298 6.298 0 0 1 2.037 1.361zm1.132 4.436c0-1.537-.624-2.93-1.631-3.937A5.551 5.551 0 0 0 8.5 4.35c-.756-.001-1.475.149-2.129.42H6.37a5.593 5.593 0 0 0-3.01 3l-.007.018a5.557 5.557 0 0 0-.421 2.13c0 .603.096 1.185.273 1.726A5.59 5.59 0 0 0 4 13.2c.637.87 1.155 1.439 1.559 1.88l-.001.002c.785.857 1.175 1.286 1.236 2.454h3.44c.06-1.176.442-1.6 1.23-2.472.394-.436.9-.996 1.534-1.863a5.553 5.553 0 0 0 1.07-3.284zM7.362 22.567a.353.353 0 0 1 0-.705h2.277a.353.353 0 0 1 0 .705H7.362zM12.826 2.972a.352.352 0 0 1-.48.129.352.352 0 0 1-.129-.48l.684-1.183a.352.352 0 0 1 .609.35l-.684 1.184zM4.783 2.622a.35.35 0 0 1-.609.35l-.683-1.184a.352.352 0 0 1 .61-.35l.682 1.184zM1.71 5.436a.352.352 0 0 1-.35.609L.176 5.362a.351.351 0 1 1 .35-.608l1.184.682zM15.64 6.045a.352.352 0 0 1-.479-.13.352.352 0 0 1 .13-.479l1.183-.683a.352.352 0 0 1 .35.609l-1.183.683z" fill="#000"/><path d="M4.837 11.31a.352.352 0 0 1-.647.273 4.741 4.741 0 0 1-.369-1.82.353.353 0 0 1 .705 0 4.006 4.006 0 0 0 .31 1.548zm0-3.096a.352.352 0 0 1-.647-.272c.118-.28.263-.545.428-.791V7.15a4.691 4.691 0 0 1 1.27-1.268V5.88a4.658 4.658 0 0 1 1.682-.703c.305-.062.618-.095.93-.095a.353.353 0 0 1 0 .706 3.887 3.887 0 0 0-2.22.676 3.984 3.984 0 0 0-1.078 1.08v-.002a3.966 3.966 0 0 0-.365.671z" fill="#000"/></svg>
